src/assets/svg/icons/fa/nuevos/classic/light/book-arrow-up classic light.svg

<svg xmlns="http://www.w3.org/2000/svg" viewBox="0 0 448 512"><path d="M347.3 251.3C350.4 248.2 352 244.1 352 240s-1.562-8.188-4.688-11.31l-96-96c-6.25-6.25-16.38-6.25-22.62 0l-96 96c-6.25 6.25-6.25 16.38 0 22.62s16.38 6.25 22.62 0L224 182.6V496c0 8.844 7.156 16 16 16s16-7.156 16-16V182.6l68.69 68.69C330.9 257.6 341.1 257.6 347.3 251.3zM448 368v-320C448 21.49 426.5 0 400 0h-320C35.82 0 0 35.82 0 80V448c0 35.35 28.66 64 64 64h112C184.8 512 192 504.8 192 496C192 487.2 184.8 480 176 480H65.81c-15.95 0-30.77-10.85-33.37-26.59C29.14 433.4 44.59 416 64 416h112C184.8 416 192 408.8 192 400C192 391.2 184.8 384 176 384H64c-11.71 0-22.55 3.389-32 8.9V80C32 53.49 53.49 32 80 32h320C408.8 32 416 39.16 416 48v320c0 8.836-7.164 16-16 16h-96c-8.836 0-16 7.162-16 16c0 8.836 7.164 16 16 16H384v64h-80c-8.836 0-16 7.162-16 16c0 8.836 7.164 16 16 16h128c8.844 0 16-7.156 16-16S440.8 480 432 480H416v-66.95C434.6 406.4 448 388.8 448 368z"/></svg>

<svg xmlns="http://www.w3.org/2000/svg" viewBox="0 0 448 512"><!--! Font Awesome Pro 6.4.0 by @fontawesome - https://fontawesome.com License - https://fontawesome.com/license (Commercial License) Copyright 2023 Fonticons, Inc. --><path d="M64 0C28.7 0 0 28.7 0 64L0 448l0 0c0 35.3 28.7 64 64 64H176V480H64c-17.7 0-32-14.3-32-32s14.3-32 32-32H176V384H64c-11.7 0-22.6 3.1-32 8.6L32 64c0-17.7 14.3-32 32-32H400c8.8 0 16 7.2 16 16V368c0 8.8-7.2 16-16 16H304v32h80v64H304v32H432c8.8 0 16-7.2 16-16s-7.2-16-16-16H416V413.3c18.6-6.6 32-24.4 32-45.3V48c0-26.5-21.5-48-48-48H64zm68.7 228.7c-6.2 6.2-6.2 16.4 0 22.6s16.4 6.2 22.6 0L224 182.6 224 496c0 8.8 7.2 16 16 16s16-7.2 16-16l0-313.4 68.7 68.7c6.2 6.2 16.4 6.2 22.6 0s6.2-16.4 0-22.6l-96-96c-6.2-6.2-16.4-6.2-22.6 0l-96 96z"/></svg>
